src/16/actions/view-time-schedule-calculus.svg

<svg xmlns="http://www.w3.org/2000/svg" viewBox="0 0 16 16"><path d="M2 2v12h6v-1H3V5h10v2h1V2h-2v2h-2V2H6v2H4V2H2zm2 4v3h1V8h2v1h1V6H7v1H5V6H4zm5 2v6h5V8H9zm1 1h3v1h-3V9zm0 2h3v2h-3v-2z" fill="currentColor" color="#5d656b"/></svg>

<svg xmlns="http://www.w3.org/2000/svg" viewBox="0 0 16 16">
  <defs id="defs3051">
    <style type="text/css" id="current-color-scheme">
      .ColorScheme-Text {
        color:#5d656b;
      }
      </style>
  </defs>
    <path
       style="fill:currentColor;fill-opacity:1;stroke:none" 
       d="M 2 2 L 2 14 L 8 14 L 8 13 L 3 13 L 3 5 L 13 5 L 13 7 L 14 7 L 14 2 L 12 2 L 12 4 L 10 4 L 10 2 L 6 2 L 6 4 L 4 4 L 4 2 L 2 2 z M 4 6 L 4 9 L 5 9 L 5 8 L 7 8 L 7 9 L 8 9 L 8 6 L 7 6 L 7 7 L 5 7 L 5 6 L 4 6 z M 9 8 L 9 10 L 9 11 L 9 14 L 14 14 L 14 8 L 9 8 z M 10 9 L 13 9 L 13 10 L 10 10 L 10 9 z M 10 11 L 13 11 L 13 13 L 10 13 L 10 11 z "
     class="ColorScheme-Text"
       id="rect4449" />
</svg>
